X: 53
T: Fang yang
L: 1/16
M: 2/4
K: C
D2 D E E2 C2 [I:setbarnb 1]| 
D2 E A,G,4 | 
A,2 A, C C2 G,2 | 
A,2 C E,D,4 | 
G,2> A,2 G,2 G, A, | 
G,2 E2 D2 E2 | 
E2 D C C2 E, G, | 
A,2> C2 G, A, G, E, | 
D,8 |]

@@@ Tune index: 8927
